packages/foundations/assets/icons/functional/images/logos/s_bahn_14_inverted.svg

<svg width="14" height="14" viewBox="0 0 14 14" fill="none" xmlns="http://www.w3.org/2000/svg">
<g clip-path="url(#clip0_2213_4660)">
<path fill-rule="evenodd" clip-rule="evenodd" d="M6.72833 3.06253C5.41723 3.06253 3.95703 3.89553 3.95703 5.44253C3.95703 6.82013 4.89923 7.32413 5.90513 7.64333C6.33563 7.77703 6.58413 7.83793 7.16303 8.00733C7.80423 8.21313 8.28443 8.47493 8.28443 9.04543C8.28443 9.49833 7.70763 9.92323 6.99083 9.92323C5.87783 9.92323 4.68293 9.24703 4.01793 8.23973V9.81473C4.69133 10.4391 5.92403 10.9375 6.99083 10.9375C8.90533 10.9375 10.0428 9.52563 10.0428 8.31253C10.0428 6.97623 9.17343 6.48833 8.20813 6.19853C7.82417 6.09582 7.43915 5.99711 7.05313 5.90243C6.27193 5.70153 5.64403 5.45443 5.64403 4.76423C5.64403 4.33023 6.02903 3.95923 6.70173 3.95923C7.82173 3.95923 8.90253 4.57313 9.57873 5.37043V4.05863C8.77148 3.40906 7.76446 3.05731 6.72833 3.06253Z" fill="#1A1C1F"/>
</g>
<defs>
<clipPath id="clip0_2213_4660">
<rect width="14" height="14" fill="white"/>
</clipPath>
</defs>
</svg>

<svg xmlns="http://www.w3.org/2000/svg" width="14" height="14" fill="none"><g clip-path="url(#a)"><path fill="#1A1C1F" fill-rule="evenodd" d="M6.728 3.063c-1.31 0-2.771.833-2.771 2.38 0 1.377.942 1.881 1.948 2.2.43.134.68.195 1.258.364.641.206 1.121.468 1.121 1.038 0 .453-.576.878-1.293.878-1.113 0-2.308-.676-2.973-1.683v1.575c.673.624 1.906 1.123 2.973 1.123 1.914 0 3.052-1.412 3.052-2.625 0-1.337-.87-1.825-1.835-2.114a57 57 0 0 0-1.155-.297c-.781-.2-1.409-.448-1.409-1.138 0-.434.385-.805 1.058-.805 1.12 0 2.2.614 2.877 1.411V4.06a4.5 4.5 0 0 0-2.85-.996" clip-rule="evenodd"/></g><defs><clipPath id="a"><path fill="#fff" d="M0 0h14v14H0z"/></clipPath></defs></svg>
